X:32
T: Der verkleidete Markgrafensohn
N: D0033
O: Europa, Mitteleuropa, Lothringen, Weiler
N: Inzipit = Variante zum Lied
R: Ballade
M: 4/8
L: 1/8
K: G
DDD | G2FE | FGA2- | A3
A | BAGF | E2D
A | AAB | AAd2 | cBA | G2A
B | cA | BAG | F3 | G3

